!!!OTL: Aue viuens hostia
**kern
*staff1
=1-
*clefF4
*k[]
*met(c|)
*M2/2
1D
1AA
=2
2GG/
2FF/
2C/
2D\
=3
1AA
1D
=4
2AA/
2AA/
2C/
2D\
=5
1GG
1AA
=6
0D
!!linebreak:original
=7
2AA/
2D\
2C/
2C/
=8
2D\
2C/
1D
=9
2E\
2E\
2F\
2G\
=10
2C/
1GG
0AA
!!linebreak:original
=11
2C/
2BB/
2BB/
2C/
=12
2AA/
2BB/
1AA
=13
2AA/
2GG/
2AA/
1D
2C/
1D
=14
0GG
=15
!!linebreak:original
2BB/
2C/
2BB/
2BB/
=16
2BB/
2C/
2BB/
1EE
2BB/
2E\
2D\
=17
1GG
2AA/
1BB
=18
0EE
==
*-
!!title: @{OTL}, @{GTL}, ed. @{ENC}
!!!pag:
!!!GTL: Hymnbook D
!!!EFL: 
!!!YEM: Creative Commons CC/BY/NC/SA 4.0
!!!ENC: Marcin Konik
!!!END: 2015-0m-dd
!!!EED: Marcin Konik
!!!EEV: 
!!!ONB: Encoded in vim by Marcin Konik
!!!CharacterEncoding: utf-8
!!!RDF**kern: l=long note in original notation
!!!RDF**kern: i=editorial accidental
!!muse2ps: z14jc180F
!!!COM: Anonim
!!!CDT: [?]
!!!TXO: Polish
!!!ODT: 
!!!GTL: Hymnbook D
!!!ARL: Opactwo św. Wojciecha, Staniątki 
!!!voices:	1
